picto/loud-music-prohibited.svg

<svg class="color-immutable" width="24" height="24" viewBox="0 0 24 24" fill="none" xmlns="http://www.w3.org/2000/svg"><path d="M0 22.5V1.5C0 0.675 0.675 0 1.5 0H22.5C23.325 0 24 0.675 24 1.5V22.5C24 23.325 23.325 24 22.5 24H1.5C0.675 24 0 23.325 0 22.5Z" fill="#2D327D"/><path d="M8.08506 17.955C7.69606 17.753 7.21606 17.634 6.69806 17.634C5.39406 17.634 4.33606 18.387 4.33606 19.317C4.33706 20.247 5.39406 21 6.69906 21C8.00306 21 9.06106 20.247 9.06106 19.317V10.105L8.08506 9.13V17.955Z" fill="white"/><path d="M15.989 6.651V14.911L16.964 15.886V3L8.08496 6.423V7.008L9.99096 8.914L15.989 6.651Z" fill="white"/><path d="M12.24 17.217C12.24 18.146 13.297 18.9 14.602 18.9C15.597 18.9 16.448 18.461 16.796 17.84L14.492 15.536C13.239 15.577 12.24 16.314 12.24 17.217Z" fill="white"/><path d="M3.70801 2.631L2.64801 3.692L19.99 21.034L21.05 19.973L3.70801 2.631Z" fill="#EB0000"/></svg>

<svg class="color-immutable" width="24" height="24" viewBox="0 0 24 24" fill="none" xmlns="http://www.w3.org/2000/svg"><g clip-path="url(#a)"><path d="M0 22.5v-21C0 .675.675 0 1.5 0h21c.825 0 1.5.675 1.5 1.5v21c0 .825-.675 1.5-1.5 1.5h-21C.675 24 0 23.325 0 22.5Z" fill="#2D327D"/><path d="M8.085 17.955a3.028 3.028 0 0 0-1.387-.321c-1.304 0-2.362.753-2.362 1.683C4.337 20.247 5.394 21 6.7 21c1.304 0 2.362-.753 2.362-1.683v-9.212l-.976-.975v8.825ZM15.989 6.651v8.26l.975.975V3L8.085 6.423v.585l1.906 1.906 5.998-2.263ZM12.24 17.217c0 .929 1.057 1.683 2.362 1.683.995 0 1.846-.439 2.194-1.06l-2.304-2.304c-1.253.041-2.252.778-2.252 1.681Z" fill="#fff"/><path d="m3.708 2.631-1.06 1.061L19.99 21.034l1.06-1.061L3.708 2.631Z" fill="#EB0000"/></g><defs><clipPath id="a"><path fill="#fff" d="M0 0h24v24H0z"/></clipPath></defs></svg>
